X: 13133
T: First Flight Of Geese, The
R: hornpipe
M: 4/4
K: Dmajor
|:DEAB AGFE|A,EED EDB,D|A,EEF GDFA|GE(3EFE DAGF|
EGBd cAFA|GE~E2 dEcA|Be(3dcB cAFG|BGDE FEE2:|
|:ef(3gfe abag|dfaf edGB|(3cBA eA fdaf|gfde GABA|
ef(3gfe befa|agde fAeA|(3cBA EA FAdA|BGDE FEE2:|

